X:1
T:Where Will You Spend Eternity?
T:John Harrison Tenney (1840-1918)
T:Where Will You Spend Eternity?
T:Public Domain
T:Public Domain
C:John Harrison Tenney (1840-1918)
Z:Public Domain
%%score ( 1 2 ) 3
L:1/8
M:4/4
K:F
V:1 treble 
V:2 treble 
V:3 bass 
V:1
 [FA]2 [EG]F [FB]3 [FA] | [FA]3 F [FA]4 | [Fc]2 [EB][FA] [FG]3 [FG] | %3
w: 1.~Where will you spend e-|ni- ty? This|ion comes to you and|
w: 2.~Ma- ny are choos- ing|to- day, Turn-|from all their sins a-|
w: 3.~Leav- ing the straight and|row way, Go-|the down- ward road to-|
w: 4.~Re- pent, be- lieve, this|y hour, Trust|the Sav- ior’s grace and|
 [FA]2 ([GB][FA]) (z (3[Bd][Ac][GB]-[GB]) | [FA]2 [EG]F [FB]3 [FA] | [FA]3 F [FA]4 | %6
w: me! Tell * * * * *|* what shall your an-|be? Where will|
w: way; Heav’n * * * * *|* their hap- py por-|be; Where will|
w: day, Sad * * * * *|* their fin- al end-|be, Lost thro’|
w: power, Then * * * * *|* your joy- ous an-|be, Saved thro’|
 [Fc]2 [Ec][Gc] [Fc]3 [FA] | ([EG]2 [FA]>)[GB] [FA]3 ||"^Refrain" [FA] | [FB]3 [FA] [FA]3 [Fc] | %10
w: spend e- ter- ni- ty?|E- * ter- ni-|ty!|e- ter- ni- ty!|
w: spend e- ter- ni- ty?|E- * ter- ni-|ty!|e- ter- ni- ty!|
w: long e- ter- ni- ty!|E- * ter- ni-|ty!|e- ter- ni- ty!|
w: long e- ter- ni- ty!|E- * ter- ni-|ty!|e- ter- ni- ty!|
 [Fd]3 [Fc] [Fc]4 | F2 F[FG] [FA]3 [CF] | [CEG]3 [CF] [CF]4 |] %13
w: Where will you|spend e- ter- ni- ty?||
w: Where will you|spend e- ter- ni- ty?||
w: Lost thro’ a|long e- ter- ni- ty!||
w: Saved thro’ a|long e- ter- ni- ty!||
V:2
 x3 F x4 | x3 F x4 | x8 | x4 [EG]3 x | x3 F x4 | x3 F x4 | x8 | x7 || x | x8 | x8 | F2 F x5 | x8 |] %13
w: ter-|quest-||me,|swer|you||||||||
w: Christ|ing||shall|tion|you||||||||
w: nar-|ing||will|ing|a||||||||
w: ver-|in||will|swer|a||||||||
V:3
 [F,C]2 [F,B,][F,A,] [F,D]3 [F,C] | [F,C]3 [F,A,] [F,C]4 | [A,C]2 [G,C][F,C] [B,,D]3 [B,,D] | %3
 [C,C]2 [C,C]2 [C,C]3- [C,C] | [F,C]2 [F,B,][F,A,] [F,D]3 [F,C] | [F,C]3 [F,A,] [F,C]4 | %6
 [F,A,]2 [C,G,][C,B,] [F,A,]3 [F,C] | [C,C]3 [C,C]/ [F,C]3 x/ || [F,C] | %9
 [F,D]3 [F,C] [F,C]3 [F,A,] | [F,B,]3 [F,A,] [F,A,]4 | [D,A,]2 [B,,D][B,,D] [C,C]3 [C,A,] | %12
 [C,B,]3 [F,,F,A,] [F,,F,A,]4 |] %13

